X:187
M:6/8
L:1/8
K:G
|: BcB ccc | dcB A2G | Bcd efg | fdd d2 e/f/ | geg fdf | ece dcB | cBc ABc | BGG G3 :|

